_includes/icons/ios-exe.svg

<svg fill="#666" height="50" viewBox="0 0 50 50" width="50" xmlns="http://www.w3.org/2000/svg"><path d="m7 2v46h36v-32.585937l-13.589844-13.414063zm2 2h19v13h13v29h-32zm21 1.390625 9.734375 9.609375h-9.734375zm-8.023437 18.167969 1.816406 4.933594-1.890625 5.175781h1.949219l.539062-1.828125c.152344-.570313.316406-1.1875.480469-1.832031h.03125c.179687.644531.34375 1.214843.539062 1.800781l.648438 1.859375h2.019531l-1.992187-5.089844 1.890625-5.019531h-1.964844l-.511719 1.84375c-.136719.554687-.253906 1.035156-.421875 1.648437h-.027344c-.164062-.570312-.300781-1.09375-.464843-1.617187l-.585938-1.875zm-5.070313 0v10.109375h4.578125v-1.710938h-2.609375v-2.730468h2.308594v-1.632813h-2.308594v-2.328125h2.425781v-1.707031zm12.015625 0v10.109375h4.578125v-1.710938h-2.609375v-2.730468h2.308594v-1.632813h-2.308594v-2.328125h2.425781v-1.707031z"/></svg>

<svg xmlns="http://www.w3.org/2000/svg" viewBox="0 0 50 50" width="50" height="50" fill="#666"><path d="M 7 2 L 7 48 L 43 48 L 43 15.414063 L 29.410156 2 Z M 9 4 L 28 4 L 28 17 L 41 17 L 41 46 L 9 46 Z M 30 5.390625 L 39.734375 15 L 30 15 Z M 21.976563 23.558594 L 23.792969 28.492188 L 21.902344 33.667969 L 23.851563 33.667969 L 24.390625 31.839844 C 24.542969 31.269531 24.707031 30.652344 24.871094 30.007813 L 24.902344 30.007813 C 25.082031 30.652344 25.246094 31.222656 25.441406 31.808594 L 26.089844 33.667969 L 28.109375 33.667969 L 26.117188 28.578125 L 28.007813 23.558594 L 26.042969 23.558594 L 25.53125 25.402344 C 25.394531 25.957031 25.277344 26.4375 25.109375 27.050781 L 25.082031 27.050781 C 24.917969 26.480469 24.78125 25.957031 24.617188 25.433594 L 24.03125 23.558594 Z M 16.90625 23.558594 L 16.90625 33.667969 L 21.484375 33.667969 L 21.484375 31.957031 L 18.875 31.957031 L 18.875 29.226563 L 21.183594 29.226563 L 21.183594 27.59375 L 18.875 27.59375 L 18.875 25.265625 L 21.300781 25.265625 L 21.300781 23.558594 Z M 28.921875 23.558594 L 28.921875 33.667969 L 33.5 33.667969 L 33.5 31.957031 L 30.890625 31.957031 L 30.890625 29.226563 L 33.199219 29.226563 L 33.199219 27.59375 L 30.890625 27.59375 L 30.890625 25.265625 L 33.316406 25.265625 L 33.316406 23.558594 Z"/></svg>
